X: 998
T: Valley Forge
B: jims roots
M:C|
L:1/8
Q: 1/4=100
K:D mix
V:1 
A2|"D"d2fdf2AB|"C"c2cd cBAB|c2cd cBAG|"D"Add^cd2A2|
"D"d2fdf2AB|"C"c2cd cBAB|c2cd cBAG|1"D"Add^cd2:|2"D"Add^cd4||
"D"F4D2DE|FEFG ABAG|F2FED2D2|"C"EDED FDED|
"D"F3ED2DE|FEFG ABAG|F2FED2D2|"A"EDEF"D"D4||
"Am"C4A,2A,B,|C2CD CB,A,B,|CB,CD CB,A,G,|"D"A,D-DED4|
"Am"C4A,2A,B,|C2CD CB,A,B,|CB,CD CB,A,2|"D"A,D-DED2|]
% abcbook-tune_id 6298c297233a9b59dcbedce8


% abcbook-boost 0
% abcbook-tablature 
% abcbook-transpose 
% abcbook-lastupdated 1654178456517
% abcbook-soundfonts 
% abcbook-repeats 1


